icon-themes/sifr_svg/cmd/lc_symbolshapes.lightning.svg

<svg viewBox="0 0 24 24" xmlns="http://www.w3.org/2000/svg"><path d="m14 1.593017-9 10.406983h10l-7 7-2-2v6l6-1-2-1.587196 10-10.412804h-10.2881356l6.2881356-6.729017z" fill="#555753"/></svg>

<svg xmlns="http://www.w3.org/2000/svg" viewBox="0 0 24 24">
  <path
     style="fill:#555753"
     d="M 14,1.593017 5,12 H 15 L 8,19 6,17 v 6 L 12,22 10,20.412804 20,10 H 9.7118644 L 16,3.270983 Z"
     />
</svg>
